!!!SOCIAL_FUNCTION:	miscellaneous songs
!!!PDT:	1932
!!!OTL: No_129_Song_of_Admiration.krn
!!!REG: Southwest
!!!LANG: Non-Tone
!!!LING_GROUP: Yuman-Cochimi
**kern
*staff1
=1-
*clefF4
*k[f#c#g#]
*M3/4
2r
4c#\
=2
4c#\
4B\
4c#\
=3
4d\
4B\
4c#\
=4||
*M2/4
(4.d\
8A\)
=5||
*M3/4
4B\
4r
4G#\
=6
4d\
4d\
8c#\
8r
=7||
*M2/4
4e\
4d\
=8
4c#\
4B\
=9
4.d\
8G#\
=10||
*M3/4
2A\
4A\
=11
4c#\
4r
4B\
=12||
*M2/4
4c#\
4B\
=13
4A\
4A\
=14
(4.d\
8A\)
=15||
*M3/4
4B\
4r
4G#\
=16||
*M2/4
2e\
=17
4d\
4f#\
=18||
*M3/4
4e\
4d\
4c#\
=19||
*M2/4
4d\
8r
8G#\
=20||
*M3/4
2A\
4A\
=21||
*M2/4
4c#\
8r
8B\
=22
4B\
4A\
=23||
*M3/4
4c#\
4B\
4c#\
=24||
*M2/4
4.d\
8A\
=25||
*M3/4
4B\
4r
4F#\
=26||
*M2/4
4.e\
8e\
=27
4f#\
4e\
=28||
*M3/4
4d\
4c#\
4B\
=29||
*M2/4
4.d\
8G#\
=30
2A\
=31
4.c#\
8c#\
=32
4B\
4c#\
=33||
*M3/4
4c#\
4B\
4c#\
=34||
*M2/4
(4.d\
8A\)
=35||
*M3/4
4B\
4r
4G#\
==
*-
